icon-themes/breeze_svg/cmd/lc_starshapes.star5.svg

<svg viewBox="0 0 24 24" xmlns="http://www.w3.org/2000/svg"><path d="m12 4-3 6h-5l4 4-1 6 5-3 5 3-1-6 4-4h-5z" fill="#4d4d4d"/></svg>

<svg xmlns="http://www.w3.org/2000/svg" viewBox="0 0 24 24">
 <path 
     style="fill:#4d4d4d" 
     d="M 12 4 L 9 10 L 4 10 L 8 14 L 7 20 L 12 17 L 17 20 L 16 14 L 20 10 L 15 10 L 12 4 z "
     />
 </svg>
